X: 129
T: Friends, Go On
C: Teton Sioux band 1911-1914
N: Derived from sioux128.krn
O: South Dakota, U.S.A.
N: Teton Sioux Music by Frances Densmore, 1918
Z: transcribed to **kern format by Craig Sapp
L: 1/8
M: 3/4
Q: 1/4=58
K: Bb clef=bass
%%linebreak <none>
D2D2E/ D/ D/ C/ [I:setbarnb 1]||  
[M:2/4]B, B, B,/ G,/ G, ||  
[M:3/4]B, B, B, B, B, D/ C/ ||  
[M:2/4]B, B, B,/ G,/ G, ||  
[M:3/4]B, B, B,/ G,/ G, G, G, ||  
[M:2/4]F, F, F,/ D,/ D, ||  
[M:3/4]G,2G,2B, G, ||  
[M:2/4]F, F, D, D, | 
D,4 ||  
[M:3/4]D,2D,2z2 | 
G, B, B, B, B, (D/ C/) ||  
[M:2/4]B, B, (B,/ G,/) G, ||  
[M:3/4]B, B, (B,/ G,/) G, G, G, ||  
[M:2/4]F, F, (F,/ D,/) D, ||  
[M:3/4]G,2G,2B, G, ||  
[M:2/4]F, F, D, D, | 
D,4 | 
D,4 |]  



